front/assets/images/coche-jaune-sur-rond-noir.svg

<svg width="48" height="48" viewBox="0 0 48 48" fill="none" xmlns="http://www.w3.org/2000/svg">
    <path fill-rule="evenodd" clip-rule="evenodd" d="M40.8 7.79961C40.4691 7.79961 40.2 7.53045 40.2 7.19961C40.2 6.86874 40.4691 6.59961 40.8 6.59961C41.1308 6.59961 41.4 6.86874 41.4 7.19961C41.4 7.53045 41.1308 7.79961 40.8 7.79961Z" fill="#FED980"/>
    <path fill-rule="evenodd" clip-rule="evenodd" d="M24.6 45.5994C24.2692 45.5994 24 45.3303 24 44.9994C24 44.6685 24.2692 44.3994 24.6 44.3994C24.9308 44.3994 25.2 44.6685 25.2 44.9994C25.2 45.3303 24.9308 45.5994 24.6 45.5994Z" fill="#FED980"/>
    <path fill-rule="evenodd" clip-rule="evenodd" d="M8.9999 5.9998C8.66906 5.9998 8.3999 5.73064 8.3999 5.3998C8.3999 5.06894 8.66906 4.7998 8.9999 4.7998C9.33074 4.7998 9.5999 5.06894 9.5999 5.3998C9.5999 5.73064 9.33074 5.9998 8.9999 5.9998Z" fill="#FED980"/>
    <path fill-rule="evenodd" clip-rule="evenodd" d="M22.4034 27.9474L18.5741 23.4208L18.5006 23.3417C18.043 22.8996 17.3489 22.8915 16.892 23.3181C16.4099 23.7684 16.3668 24.5373 16.7943 25.0426L21.712 30.855C21.7433 30.892 21.7776 30.9265 21.8145 30.958C22.1924 31.2808 22.7605 31.2362 23.0834 30.8582L33.602 18.5443L33.6684 18.4588C34.0274 17.9423 33.9592 17.2409 33.5122 16.8193C33.0237 16.3588 32.2669 16.4017 31.8296 16.9137L22.4034 27.9474Z" fill="#FED980"/>
    <path d="M6.86442 27.021C5.19571 17.5572 11.5148 8.53259 20.9786 6.86387C26.9912 5.80369 33.0176 7.96043 37.0043 12.4353C37.2247 12.6827 37.2028 13.062 36.9554 13.2824C36.708 13.5028 36.3287 13.4809 36.1083 13.2335C32.3955 9.06617 26.7856 7.05846 21.187 8.04564C12.3759 9.59927 6.49256 18.0015 8.04619 26.8126C9.59982 35.6237 18.0021 41.507 26.8132 39.9534C35.6243 38.3998 41.5076 29.9975 39.954 21.1864C39.8964 20.8601 40.1143 20.5489 40.4407 20.4914C40.767 20.4338 41.0782 20.6517 41.1357 20.9781C42.8044 30.4418 36.4853 39.4665 27.0216 41.1352C17.5578 42.8039 8.53314 36.4848 6.86442 27.021Z" fill="#0D0C21"/>
    <path d="M42.1345 28.1541C42.2082 27.8311 42.5298 27.6289 42.8529 27.7026C43.176 27.7763 43.3781 28.0979 43.3044 28.421C42.4974 31.9588 40.7295 35.1897 38.2158 37.7819C37.9851 38.0198 37.6052 38.0257 37.3673 37.795C37.1295 37.5643 37.1236 37.1844 37.3543 36.9465C39.7161 34.511 41.3766 31.4763 42.1345 28.1541Z" fill="#0D0C21"/>
    <path d="M43.2001 25.1995C42.8687 25.1995 42.6001 25.4682 42.6001 25.7995C42.6001 26.1309 42.8687 26.3995 43.2001 26.3995C43.5314 26.3995 43.8001 26.1309 43.8001 25.7995C43.8001 25.4682 43.5314 25.1995 43.2001 25.1995Z" fill="#0D0C21"/>
</svg>

<svg xmlns="http://www.w3.org/2000/svg" width="48" height="48" fill="none"><path fill="#FED980" fill-rule="evenodd" d="M40.8 7.8a.6.6 0 1 1 .001-1.202A.6.6 0 0 1 40.8 7.8M24.6 45.6a.6.6 0 1 1 .001-1.202.6.6 0 0 1-.001 1.201M9 6a.6.6 0 1 1 0-1.202A.6.6 0 0 1 9 6m13.403 21.947-3.829-4.526-.073-.08a1.156 1.156 0 0 0-1.609-.023 1.26 1.26 0 0 0-.098 1.725l4.918 5.812a.898.898 0 0 0 1.371.003l10.519-12.314.066-.085a1.266 1.266 0 0 0-.156-1.64 1.155 1.155 0 0 0-1.682.095z" clip-rule="evenodd"/><path fill="#0D0C21" d="M6.864 27.021C5.196 17.557 11.514 8.533 20.98 6.864a17.39 17.39 0 0 1 16.025 5.571.6.6 0 0 1-.896.798 16.19 16.19 0 0 0-14.921-5.187c-8.811 1.553-14.694 9.956-13.14 18.767 1.553 8.81 9.955 14.694 18.766 13.14 8.811-1.553 14.695-9.956 13.141-18.767a.6.6 0 1 1 1.182-.208c1.668 9.464-4.65 18.489-14.114 20.157-9.464 1.669-18.489-4.65-20.158-14.114"/><path fill="#0D0C21" d="M42.135 28.154a.6.6 0 0 1 1.17.267 19.76 19.76 0 0 1-5.09 9.36.6.6 0 1 1-.86-.834 18.56 18.56 0 0 0 4.78-8.793M43.2 25.2a.6.6 0 1 0 0 1.2.6.6 0 0 0 0-1.2"/></svg>
